X: 211
T:Levavi oculos meos
N: Derived from Jos1713-Levavi_oculos_meos.krn
C: Josquin des Prez
%%abc-version 2.0
%%abcx-abcm2ps-target-version 5.9.1 (29 Sep 2008)
%%abc-creator hum2abc beta
%%abcx-conversion-date 2019/02/12 16:15:48
%%abc-edited-by Jesse Rodin
%%abc-edited-by Joel Chapman 2012/1/17
%%abcx-initial-encoding-date 2012/01/17/
%%humdrum-veritas 764383411
%%humdrum-veritas-data 3397017525
%%linebreak <none>
%%barnumbers 0
L: 1/4
M: 2/1
Q: 1/2=120
%%staves [1 2 3 4]
V: 1 clef=treble
V: 2 clef=treble-8
V: 3 clef=treble-8
V: 4 clef=bass
K: F
[V:1] G,4G,2G,2 | 
[V:2] z8 | 
[V:3] z8 | 
[V:4] z8 | 
[V:1] D4D4 | 
[V:2] z8 | 
[V:3] z8 | 
[V:4] z8 | 
[V:1] E3DG4- | 
[V:2] G4G2G2 | 
[V:3] z8 | 
[V:4] z8 | 
[V:1] G2FEF4 | 
[V:2] d4d4 | 
[V:3] z8 | 
[V:4] z8 | 
[V:1] G3ABcB2- | 
[V:2] e3dg4- | 
[V:3] z8 | 
[V:4] G,,4G,,2G,,2 | 
[V:1] B2AGA4 | 
[V:2] g2fef4 | 
[V:3] z8 | 
[V:4] D,4D,4 | 
[V:1] G8 | 
[V:2] g8 | 
[V:3] G4G2G2 | 
[V:4] E,3D,G,4- | 
[V:1] z4d4 | 
[V:2] z8 | 
[V:3] d4d4 | 
[V:4] G,2F,E,F,4 | 
[V:1] G2d3cB2 | 
[V:2] z4z2G2 | 
[V:3] e3dg4- | 
[V:4] G,4G,3F, | 
[V:1] B2AGA4 | 
[V:2] B2c2d4 | 
[V:3] g2fef4 | 
[V:4] E,4D,4 | 
[V:1] G2B4AG | 
[V:2] B3cd2e2 | 
[V:3] g4G4 | 
[V:4] z2G,,2B,,2C,2 | 
[V:1] F8- | 
[V:2] f3edcd2- | 
[V:3] z8 | 
[V:4] D,4B,,3C, | 
[V:1] F4z4 | 
[V:2] d2cBA2G2 | 
[V:3] z4z2G2 | 
[V:4] D,2E,2F,2G,2- | 
[V:1] z8 | 
[V:2] d2e2f4 | 
[V:3] B2c2d4 | 
[V:4] G,2F,E,D,4 | 
[V:1] z2G2B2c2 | 
[V:2] g8 | 
[V:3] B3cd2e2 | 
[V:4] G,,8 | 
[V:1] d4B3c | 
[V:2] z2d2G2B2- | 
[V:3] f3edcd2- | 
[V:4] z8 | 
[V:1] d2e2f2d2- | 
[V:2] B2AGF2G2 | 
[V:3] d2cBA2GA | 
[V:4] z8 | 
[V:1] dcB2A2B2- | 
[V:2] G4z2G2 | 
[V:3] Bcdef2d2- | 
[V:4] z8 | 
[V:1] B2AGA4 | 
[V:2] d2_e2d4- | 
[V:3] d2g4^f2 | 
[V:4] z8 | 
[V:1] G4D4 | 
[V:2] d2d2d4- | 
[V:3] g4f4- | 
[V:4] G,,4D,4 | 
[V:1] A4A4- | 
[V:2] d4z4 | 
[V:3] f2d2d4- | 
[V:4] D,6D,2 | 
[V:1] A2A2A4 | 
[V:2] z2f3ed2- | 
[V:3] d4z4 | 
[V:4] D,4z2F,2 | 
[V:1] z8 | 
[V:2] d2c2f2e2- | 
[V:3] z8 | 
[V:4] G,2A,2F,2G,2- | 
[V:1] z2B3AG2 | 
[V:2] edd4c2 | 
[V:3] z8 | 
[V:4] G,F,D,2_E,4 | 
[V:1] F4G2B2 | 
[V:2] d4B4 | 
[V:3] z2B3AG2 | 
[V:4] D,4z2G,2 | 
[V:1] ABcAB2A2- | 
[V:2] c4z2d2- | 
[V:3] F4G2A2 | 
[V:4] A,4G,2D,2 | 
[V:1] AGG4^F2 | 
[V:2] d2_e2d4 | 
[V:3] B2c2A4 | 
[V:4] G,2C,2D,4 | 
[V:1] G8 | 
[V:2] B6AG | 
[V:3] G4z4 | 
[V:4] G,,2G,4F,E, | 
[V:1] z4D4 | 
[V:2] B4A2d2- | 
[V:3] G4d4 | 
[V:4] G,3F,D,4- | 
[V:1] A4A4- | 
[V:2] d2cBd3c | 
[V:3] d6d2 | 
[V:4] D,8- | 
[V:1] A2A2A4 | 
[V:2] A4z4 | 
[V:3] d4z2d2- | 
[V:4] D,4z4 | 
[V:1] z2A4G2 | 
[V:2] z8 | 
[V:3] d2c2d2e2 | 
[V:4] z8 | 
[V:1] A2B2A2B2- | 
[V:2] z8 | 
[V:3] f2d2c2d2- | 
[V:4] z8 | 
[V:1] BAGFG4 | 
[V:2] z8 | 
[V:3] dcBAB4 | 
[V:4] z4G,,4 | 
[V:1] F8- | 
[V:2] D4A4 | 
[V:3] A8 | 
[V:4] D,4D,3D, | 
[V:1] F8 | 
[V:2] A3AA4 | 
[V:3] z8 | 
[V:4] D,4z2D,2- | 
[V:1] z8 | 
[V:2] z2A4G2 | 
[V:3] z8 | 
[V:4] D,2C,2D,2E,2 | 
[V:1] z8 | 
[V:2] A2B2A2B2- | 
[V:3] z8 | 
[V:4] F,2D,2C,2D,2- | 
[V:1] z4D4 | 
[V:2] BAGFG4 | 
[V:3] z8 | 
[V:4] D,C,B,,A,,B,,4 | 
[V:1] F6F2 | 
[V:2] A8 | 
[V:3] A4c4- | 
[V:4] A,,2A,2F,3G, | 
[V:1] E2F2G2E2 | 
[V:2] z8 | 
[V:3] c2c2B2c2 | 
[V:4] A,2A,2G,2A,2 | 
[V:1] D2G4^F2 | 
[V:2] z8 | 
[V:3] d2B2c2A2 | 
[V:4] D,2_E,2C,2D,2 | 
[V:1] G4z2G2 | 
[V:2] d4g4- | 
[V:3] G8- | 
[V:4] G,,8- | 
[V:1] d6d2 | 
[V:2] g2g2g4 | 
[V:3] G8 | 
[V:4] G,,8 | 
[V:1] d2d4cB | 
[V:2] f4d4 | 
[V:3] A8 | 
[V:4] D,8 | 
[V:1] A2A2B2c2 | 
[V:2] f4g2e2 | 
[V:3] z2d2B2A2 | 
[V:4] z8 | 
[V:1] d4z2d2- | 
[V:2] d8- | 
[V:3] D4z2G2 | 
[V:4] D,4G,4- | 
[V:1] dcBAB2B2 | 
[V:2] d8 | 
[V:3] d6d2 | 
[V:4] G,2G,2G,4 | 
[V:1] A8 | 
[V:2] z8 | 
[V:3] d2d4cB | 
[V:4] F,4D,4 | 
[V:1] z8 | 
[V:2] z4z2g2 | 
[V:3] A2A2B2c2 | 
[V:4] F,4G,2E,2 | 
[V:1] z2d2c2A2 | 
[V:2] f2d2f3e | 
[V:3] d4z4 | 
[V:4] D,4z4 | 
[V:1] c2B2G2d2 | 
[V:2] c2g3fd2 | 
[V:3] z8 | 
[V:4] z8 | 
[V:1] cBAGB2A2- | 
[V:2] f3ed2c2- | 
[V:3] z8 | 
[V:4] z8 | 
[V:1] AGG4^F2 | 
[V:2] cBG2A4 | 
[V:3] z8 | 
[V:4] z8 | 
[V:1] G8 | 
[V:2] G4B4 | 
[V:3] z8 | 
[V:4] z4z2G,2 | 
[V:1] z8 | 
[V:2] A4z4 | 
[V:3] z2d2c2A2 | 
[V:4] F,2D,2F,3E, | 
[V:1] z8 | 
[V:2] z8 | 
[V:3] c2B2G2d2 | 
[V:4] C,2G,3F,D,2 | 
[V:1] z8 | 
[V:2] z8 | 
[V:3] cBAGB2A2- | 
[V:4] F,3E,D,2C,2 | 
[V:1] z4z2A2 | 
[V:2] z8 | 
[V:3] AGG4^F2 | 
[V:4] D,2B,,2A,,4 | 
[V:1] B4A2F2 | 
[V:2] z2d2f4 | 
[V:3] G4z2F2 | 
[V:4] G,,4D,4 | 
[V:1] G2A2B4 | 
[V:2] e2c2d2e2 | 
[V:3] c4B4 | 
[V:4] z8 | 
[V:1] A2G4F2 | 
[V:2] f2_e4d2 | 
[V:3] z8 | 
[V:4] z8 | 
[V:1] _E2D2G4 | 
[V:2] c2B2_e4 | 
[V:3] z8 | 
[V:4] z8 | 
[V:1] F8 | 
[V:2] d4c3B | 
[V:3] z4z2A2 | 
[V:4] z2D,2F,4 | 
[V:1] z8 | 
[V:2] A2G2z4 | 
[V:3] c4c2G2 | 
[V:4] F,2C,2E,3F, | 
[V:1] z2D2F3G | 
[V:2] z4A4 | 
[V:3] B2c2d4 | 
[V:4] G,4D,4 | 
[V:1] A4D2A2- | 
[V:2] A3GFEF2- | 
[V:3] A4A2A2 | 
[V:4] z2D,2D,2D,2- | 
[V:1] ABc2d4 | 
[V:2] F2E4D2 | 
[V:3] A4G4 | 
[V:4] D,C,A,,2B,,4 | 
[V:1] c2A4GF | 
[V:2] E2FGABcd | 
[V:3] A8- | 
[V:4] A,,8- | 
[V:1] GFEDE4 | 
[V:2] e2d4^c2 | 
[V:3] A8 | 
[V:4] A,,4z2A,,2 | 
[V:1] D8 | 
[V:2] d2f3edc | 
[V:3] D8- | 
[V:4] B,,C,D,E,F,G,A,2- | 
[V:1] z4A4 | 
[V:2] d2B2A4 | 
[V:3] D8 | 
[V:4] A,2G,4^F,2 | 
[V:1] B4c4- | 
[V:2] G2d2e4 | 
[V:3] z4z2G2 | 
[V:4] G,4z2C,2 | 
[V:1] c2A2B4 | 
[V:2] f6d2 | 
[V:3] A4F2B2 | 
[V:4] F,4B,,4 | 
[V:1] z4F4 | 
[V:2] e4z4 | 
[V:3] G2c2A2B2 | 
[V:4] C,4D,4 | 
[V:1] G4A4- | 
[V:2] c4c4 | 
[V:3] G4c4 | 
[V:4] C,2B,,2A,,4 | 
[V:1] A2F2G4- | 
[V:2] d6B2 | 
[V:3] A4B4 | 
[V:4] D,4G,,4 | 
[V:1] G8 | 
[V:2] c8 | 
[V:3] z2G4E2- | 
[V:4] C,4C,4- | 
[V:1] z4G4 | 
[V:2] z4c4 | 
[V:3] EFG2E2C2 | 
[V:4] C,2B,,2C,4 | 
[V:1] B4B4 | 
[V:2] g4g4 | 
[V:3] D8 | 
[V:4] G,,8 | 
[V:1] A2F2G2A2 | 
[V:2] f2d2e2c2 | 
[V:3] z8 | 
[V:4] z8 | 
[V:1] F2G2A4- | 
[V:2] d2B2c2d2- | 
[V:3] z8 | 
[V:4] z8 | 
[V:1] A2D2D4- | 
[V:2] dcBAB4 | 
[V:3] z4G4 | 
[V:4] z4G,4 | 
[V:1] D4z4 | 
[V:2] A6F2 | 
[V:3] d4d4 | 
[V:4] F,4F,4 | 
[V:1] z8 | 
[V:2] G2A2F2G2 | 
[V:3] c2A2B2c2 | 
[V:4] _E,2C,2D,2E,2 | 
[V:1] z8 | 
[V:2] E2F2G2A2- | 
[V:3] A2B2c2d2- | 
[V:4] C,2D,2_E,2F,2- | 
[V:1] z8 | 
[V:2] AGF4E2 | 
[V:3] dcB4A2 | 
[V:4] F,_E,D,2C,4 | 
[V:1] z8 | 
[V:2] F8 | 
[V:3] B4z2B2 | 
[V:4] B,,4z2D,2 | 
[V:1] z8 | 
[V:2] z2F2D2E2 | 
[V:3] A2F2G2A2 | 
[V:4] C,2A,,2B,,2C,2 | 
[V:1] z8 | 
[V:2] F2D2E2F2- | 
[V:3] F2G2A2B2- | 
[V:4] A,,2B,,2C,2D,2- | 
[V:1] z4A4 | 
[V:2] FED4C2 | 
[V:3] BAG4^F2 | 
[V:4] D,C,B,,2A,,4 | 
[V:1] B4B2G2 | 
[V:2] D2d4_e2 | 
[V:3] G8 | 
[V:4] G,,8 | 
[V:1] B3AG2^F2 | 
[V:2] d3cB2A2 | 
[V:3] z8 | 
[V:4] z8 | 
[V:1] G8 | 
[V:2] G8 | 
[V:3] z2B4c2 | 
[V:4] z2G,4C,2 | 
[V:1] z8 | 
[V:2] z8 | 
[V:3] B3AG2F2 | 
[V:4] G,3F,E,2D,2 | 
[V:1] z8 | 
[V:2] z2d3cBA | 
[V:3] G2F4G2 | 
[V:4] C,2D,4G,,2 | 
[V:1] z8 | 
[V:2] B3AG2^F2 | 
[V:3] F3ED2C2 | 
[V:4] D,3C,B,,2A,,2 | 
[V:1] B6AG | 
[V:2] G3AB2c2 | 
[V:3] D2d4_e2 | 
[V:4] G,,8 | 
[V:1] F2B2G2c2 | 
[V:2] d4z2f2 | 
[V:3] d3cB2A2 | 
[V:4] z2G,4F,2 | 
[V:1] B2G2A2B2- | 
[V:2] d3ef2Bc | 
[V:3] G4z2G2- | 
[V:4] B,3A,F,2G,2- | 
[V:1] B2A2G4 | 
[V:2] def2B2c2 | 
[V:3] G2A2B2G2 | 
[V:4] G,2F,2G,4 | 
[V:1] F4z2D2 | 
[V:2] d4d2d2- | 
[V:3] A2B4AG | 
[V:4] D,8 | 
[V:1] F3GABc2- | 
[V:2] d2cBA4- | 
[V:3] A8- | 
[V:4] z2D,4C,2 | 
[V:1] cBA3GFE | 
[V:2] A4z2d2- | 
[V:3] A8- | 
[V:4] F,3E,C,2D,2- | 
[V:1] F2E2D4 | 
[V:2] d2e2f4 | 
[V:3] A8- | 
[V:4] D,2C,2D,4 | 
[V:1] C8 ||  
[V:2] e8 ||  
[V:3] A8 ||  
[V:4] A,,8 ||  
[V:1]  [K:F] [M:2/1]z8 | 
[V:2]  [K:F] [M:2/1]z4d4- | 
[V:3]  [K:F] [M:2/1]z8 | 
[V:4]  [K:F] [M:2/1]G,6G,2 | 
[V:1] z8 | 
[V:2] d2d2c2d2 | 
[V:3] z8 | 
[V:4] F,2G,2C,2G,2- | 
[V:1] z8 | 
[V:2] G2d4cB | 
[V:3] z8 | 
[V:4] G,2F,E,D,4 | 
[V:1] z8 | 
[V:2] A4z2A2- | 
[V:3] z8 | 
[V:4] z2D,4D,2 | 
[V:1] z8 | 
[V:2] A2A2G2A2 | 
[V:3] z8 | 
[V:4] C,2D,2G,,2D,2- | 
[V:1] z8 | 
[V:2] D2A4B2- | 
[V:3] z8 | 
[V:4] D,2C,B,,A,,2G,,2 | 
[V:1] z8 | 
[V:2] BAG4F2 | 
[V:3] z8 | 
[V:4] B,,2C,2A,,4 | 
[V:1] z8 | 
[V:2] GABcdef2- | 
[V:3] z8 | 
[V:4] G,,2G,3F,D,2 | 
[V:1] z8 | 
[V:2] fed4^c2 | 
[V:3] z8 | 
[V:4] F,2G,2E,4 | 
[V:1] z4A4- | 
[V:2] d8 | 
[V:3] d6d2 | 
[V:4] D,8 | 
[V:1] A2A2G2A2 | 
[V:2] z8 | 
[V:3] c2d2G2d2- | 
[V:4] z8 | 
[V:1] D2A4GF | 
[V:2] z8 | 
[V:3] d2cBA4 | 
[V:4] z8 | 
[V:1] E4D2d2 | 
[V:2] z8 | 
[V:3] G2g2z2g2 | 
[V:4] z8 | 
[V:1] z2d2c2d2 | 
[V:2] z8 | 
[V:3] f2g2c2g2- | 
[V:4] z8 | 
[V:1] G2d3cBA | 
[V:2] z8 | 
[V:3] g2fed2g2- | 
[V:4] z4z2G,2- | 
[V:1] B2cBAGB2- | 
[V:2] z8 | 
[V:3] g2e2f2d2- | 
[V:4] G,2A,2F,2G,2- | 
[V:1] BAG4^F2 | 
[V:2] z4d4 | 
[V:3] dcB2A4 | 
[V:4] G,2G,2D,4 | 
[V:1] G4z2A2 | 
[V:2] e4f4 | 
[V:3] G4z4 | 
[V:4] G,,4z4 | 
[V:1] B4c4 | 
[V:2] g4e2f2- | 
[V:3] z8 | 
[V:4] z8 | 
[V:1] A2B3AA2- | 
[V:2] fedcd2c2- | 
[V:3] z8 | 
[V:4] z8 | 
[V:1] AGG3^FF2 | 
[V:2] cBAGA4 | 
[V:3] z8 | 
[V:4] z8 | 
[V:1] G4z4 | 
[V:2] G4z4 | 
[V:3] z2B2c2d2 | 
[V:4] z2G,2A,2F,2 | 
[V:1] z8 | 
[V:2] z8 | 
[V:3] B2c2d2c2 | 
[V:4] G,2A,2F,2E,2 | 
[V:1] z2G2A2B2 | 
[V:2] z2B2A2d2- | 
[V:3] d2B2c2d2 | 
[V:4] D,2G,2F,2D,2 | 
[V:1] G2A2F2E2 | 
[V:2] dc/B/A2z2A2 | 
[V:3] B2c2d2c2 | 
[V:4] G,2F,2D,2A,2 | 
[V:1] D2d4B2 | 
[V:2] B4G4 | 
[V:3] d4z2g2- | 
[V:4] D,4G,4 | 
[V:1] G2c2A2B2 | 
[V:2] c6B2 | 
[V:3] g2e2f2d2 | 
[V:4] E,2C,2F,2G,2 | 
[V:1] c3BAGF2 | 
[V:2] A4z2d2- | 
[V:3] e2f3edc | 
[V:4] A,4D,4 | 
[V:1] G2F2G2B2 | 
[V:2] def2B2d2- | 
[V:3] B2A2B2G2 | 
[V:4] G,2D,2G,4 | 
[V:1] AGG4^F2 | 
[V:2] dcB2A4 | 
[V:3] d8 | 
[V:4] F,2G,2D,4 | 
[V:1] G2B4B2 | 
[V:2] G2g4g2 | 
[V:3] z8 | 
[V:4] G,,8 | 
[V:1] B2A2B2c2 | 
[V:2] g2f2g2e2 | 
[V:3] z8 | 
[V:4] z8 | 
[V:1] d8 | 
[V:2] d8 | 
[V:3] z2B4B2 | 
[V:4] z2G,4G,2 | 
[V:1] z8 | 
[V:2] z8 | 
[V:3] B2A2B2c2 | 
[V:4] G,2F,2G,2E,2 | 
[V:1] z2G4G2 | 
[V:2] z2d4d2 | 
[V:3] d2B4B2 | 
[V:4] D,2G,4G,2 | 
[V:1] G2A2G2G2 | 
[V:2] d2d2B2G2 | 
[V:3] B2A2B2c2 | 
[V:4] G,2F,2G,2E,2 | 
[V:1] F4z2B2 | 
[V:2] A2d2d2d2 | 
[V:3] d8 | 
[V:4] D,8 | 
[V:1] B2B2B4 | 
[V:2] d4G2d2 | 
[V:3] z8 | 
[V:4] z8 | 
[V:1] A2G3^FF2 | 
[V:2] c2B2A4 | 
[V:3] z8 | 
[V:4] z8 | 
[V:1] G4z2D2 | 
[V:2] G8 | 
[V:3] z8 | 
[V:4] z8 | 
[V:1] E2F2G2E2 | 
[V:2] z8 | 
[V:3] z2A2B2c2 | 
[V:4] z8 | 
[V:1] F2G2A2F2 | 
[V:2] z8 | 
[V:3] d2B2c2d2 | 
[V:4] z8 | 
[V:1] G2A2B2c2- | 
[V:2] z8 | 
[V:3] B2c2d2_e2- | 
[V:4] z8 | 
[V:1] cBB4A2 | 
[V:2] z8 | 
[V:3] e2d2c4 | 
[V:4] z8 | 
[V:1] B4z2F2 | 
[V:2] z8 | 
[V:3] z2B2c2d2 | 
[V:4] z8 | 
[V:1] G2A2F2G2 | 
[V:2] z8 | 
[V:3] B2c2d2B2 | 
[V:4] z8 | 
[V:1] A2F2G2A2- | 
[V:2] z8 | 
[V:3] c2d2B2c2- | 
[V:4] z8 | 
[V:1] AGG4^F2 | 
[V:2] z8 | 
[V:3] cBG2A4 | 
[V:4] z8 | 
[V:1] G4B4 | 
[V:2] z2d2dcde | 
[V:3] G8 | 
[V:4] z4G,4 | 
[V:1] A2F2B4 | 
[V:2] f2f2B2c2 | 
[V:3] z2d2d2e2 | 
[V:4] F,2D,2G,4 | 
[V:1] A2F2G4 | 
[V:2] d4G3A | 
[V:3] f4B2c2 | 
[V:4] F,2D,2_E,4 | 
[V:1] F4B4 | 
[V:2] B3cd2e2 | 
[V:3] d4G4 | 
[V:4] D,4G,4 | 
[V:1] A2F2G4 | 
[V:2] f4B2c2 | 
[V:3] A2B4G2 | 
[V:4] F,2D,2_E,4 | 
[V:1] F8 | 
[V:2] d6cB | 
[V:3] A6F2 | 
[V:4] D,2D,2D,2D,2- | 
[V:1] z2F2F2F2 | 
[V:2] A8 | 
[V:3] F8 | 
[V:4] D,2C,B,,A,,4 | 
[V:1] G2D2G4 | 
[V:2] z2B2B2B2 | 
[V:3] z2d2d2e2 | 
[V:4] G,,4z2G,,2 | 
[V:1] F8 | 
[V:2] A4z2F2 | 
[V:3] f3ed2c2 | 
[V:4] D,8 | 
[V:1] z4F4 | 
[V:2] G4d4 | 
[V:3] B2G2A4 | 
[V:4] _E,4D,4 | 
[V:1] G4B4 | 
[V:2] B3cd2e2 | 
[V:3] G8 | 
[V:4] G,8 | 
[V:1] A4G4 | 
[V:2] f4B2c2 | 
[V:3] z2A2B2G2 | 
[V:4] F,4_E,4 | 
[V:1] F4G4 | 
[V:2] d4d4 | 
[V:3] A4B4 | 
[V:4] D,4G,,4 | 
[V:1] F2D2E4 | 
[V:2] d4c4 | 
[V:3] A2B2G2G2 | 
[V:4] D,2B,,2C,4 | 
[V:1] D4z4 | 
[V:2] d8 | 
[V:3] G4z2B2 | 
[V:4] G,,4z2G,2 | 
[V:1] G,4G,2G,2 | 
[V:2] z8 | 
[V:3] G2B4AG | 
[V:4] C,2G,4F,E, | 
[V:1] D4D4 | 
[V:2] z8 | 
[V:3] F2G4F2 | 
[V:4] D,2G,,2D,4 | 
[V:1] E3DG4- | 
[V:2] G4G2G2 | 
[V:3] G8 | 
[V:4] G,,8 | 
[V:1] G2FEF4 | 
[V:2] d4d4 | 
[V:3] z8 | 
[V:4] z8 | 
[V:1] G3ABcB2- | 
[V:2] e3dg4- | 
[V:3] z8 | 
[V:4] G,,4G,,2G,,2 | 
[V:1] B2AGA4 | 
[V:2] g2fef4 | 
[V:3] z8 | 
[V:4] D,4D,4 | 
[V:1] G8 | 
[V:2] g8 | 
[V:3] G4G2G2 | 
[V:4] E,3D,G,4- | 
[V:1] z4d4 | 
[V:2] z8 | 
[V:3] d4d4 | 
[V:4] G,2F,E,F,4 | 
[V:1] G2d3cB2- | 
[V:2] z4z2G2 | 
[V:3] e3dg4- | 
[V:4] G,4G,3F, | 
[V:1] B2AGA4 | 
[V:2] B2c2d4 | 
[V:3] g2fef4 | 
[V:4] _E,4D,4 | 
[V:1] G2B2A2B2- | 
[V:2] B4c2B2 | 
[V:3] g2G2A2GA | 
[V:4] G,,2G,2F,2G,2- | 
[V:1] BAGFG4 | 
[V:2] G4z2G2 | 
[V:3] Bcd4c2 | 
[V:4] G,F,_E,D,E,4 | 
[V:1] F8- | 
[V:2] A4B4 | 
[V:3] d8- | 
[V:4] D,8- | 
[V:1] F8 |]  
[V:2] A8 |]  
[V:3] d8 |]  
[V:4] D,8 |]  



